src/img/login-menu/social-list/auth__social-icon_code_vk.svg

<svg xmlns="http://www.w3.org/2000/svg" viewBox="0 0 24 24"><path fill="#fff" d="M5 4h14v17h-14z"/><path d="M21.016 24h-18.016c-1.453 0-3-1.156-3-3v-17.984c0-1.5 1.219-3.016 3.016-3.016h17.984c1.609 0 3 1.328 3 3.047v17.953c0 1.734-1.5 3-3.016 3h.032zm-3.852-11.026c-.558-.602-1.299-.999-2.227-1.194v-.08c.645-.269 1.15-.688 1.517-1.259.365-.571.549-1.222.549-1.954 0-.632-.133-1.189-.397-1.672-.266-.483-.667-.87-1.205-1.158-.496-.27-1.028-.446-1.597-.529-.569-.086-1.403-.128-2.504-.128h-5.3v15h6.006c1.041 0 1.899-.094 2.574-.281s1.295-.505 1.859-.948c.476-.369.855-.835 1.138-1.399.282-.564.423-1.22.423-1.965 0-1.023-.278-1.833-.836-2.433zm-4.03 3.983c-.391.169-.772.26-1.148.272-.376.015-1.055.021-2.036.021h-.201v-3.76h.695c.672 0 1.208.008 1.607.019.398.008.714.057.941.146.376.133 1.01.331 1.198.594.188.261.281.625.281 1.087 0 .363-.079.688-.237.974-.157.284-.757.502-1.1.647zm-1.067-6.515c-.275.127-.543.197-.8.211-.26.014-.712.02-1.356.02h-.473v-3.173h.262c.671 0 1.176.005 1.516.016.339.01.632.068.881.176.263.114.456.299.581.553.123.256.186.505.186.746 0 .329-.057.618-.172.867-.114.248-.323.443-.625.584z"/></svg>

<?xml version="1.0" encoding="utf-8"?>
<!-- Generator: Adobe Illustrator 22.1.0, SVG Export Plug-In . SVG Version: 6.00 Build 0)  -->
<svg version="1.1" id="Слой_1" xmlns="http://www.w3.org/2000/svg" xmlns:xlink="http://www.w3.org/1999/xlink" x="0px" y="0px"
	 viewBox="0 0 24 24" style="enable-background:new 0 0 24 24;" xml:space="preserve">
<style type="text/css">
	.st0{fill:#FFFFFF;}
	.st1{fill:#BDC3C7;}
</style>
<path class="st0" d="M5,4h14v17H5V4z"/>
<path class="st1" d="M21,24H3c-1.5,0-3-1.2-3-3V3c0-1.5,1.2-3,3-3h18c1.6,0,3,1.3,3,3v18C24,22.7,22.5,24,21,24C21,24,21,24,21,24z
	 M17.2,13c-0.6-0.6-1.3-1-2.2-1.2v-0.1c0.6-0.3,1.2-0.7,1.5-1.3c0.4-0.6,0.5-1.2,0.5-2c0-0.6-0.1-1.2-0.4-1.7
	c-0.3-0.5-0.7-0.9-1.2-1.2c-0.5-0.3-1-0.4-1.6-0.5C13.2,5,12.4,5,11.3,5H6v15h6c1,0,1.9-0.1,2.6-0.3s1.3-0.5,1.9-0.9
	c0.5-0.4,0.9-0.8,1.1-1.4c0.3-0.6,0.4-1.2,0.4-2C18,14.4,17.7,13.6,17.2,13z M13.1,17c-0.4,0.2-0.8,0.3-1.1,0.3c-0.4,0-1.1,0-2,0
	H9.7v-3.8h0.7c0.7,0,1.2,0,1.6,0c0.4,0,0.7,0.1,0.9,0.1c0.4,0.1,1,0.3,1.2,0.6c0.2,0.3,0.3,0.6,0.3,1.1c0,0.4-0.1,0.7-0.2,1
	C14.1,16.6,13.5,16.8,13.1,17z M12.1,10.4c-0.3,0.1-0.5,0.2-0.8,0.2c-0.3,0-0.7,0-1.4,0H9.4V7.5h0.3c0.7,0,1.2,0,1.5,0
	c0.3,0,0.6,0.1,0.9,0.2c0.3,0.1,0.5,0.3,0.6,0.6c0.1,0.3,0.2,0.5,0.2,0.7c0,0.3-0.1,0.6-0.2,0.9C12.6,10.1,12.4,10.3,12.1,10.4z"/>
</svg>
